X:2
T:Andrew's Song
C:Axford Robinson
M:4/4
L:1/8
K:Gmaj
A | ABcd egfd | eA AG/2A/2 A z A |\
ABcd egag | fgfd f2 gf | 
e2 z2 fgga | gfgf defe | dee z z2 A2 | ccdd eAAG | 
ABAG A2 z2|